Yaru++/actions/16/insert-text-frame.svg

<svg viewBox="0 0 24 24" xmlns="http://www.w3.org/2000/svg"><path d="m4 3v1h-1v1h1v14h-1v1h1v1h1v-1h10v-1h-10v-14h14v10h1v-10h1v-1h-1v-1h-1v1h-14v-1zm3 4v2h4v8h2v-8h4v-2zm11 9v2h-2v1h2v2h1v-2h2v-1h-2v-2z" fill="#808080"/></svg>

<svg xmlns="http://www.w3.org/2000/svg" viewBox="0 0 24 24">
 <defs>
  <style id="current-color-scheme" type="text/css">
   .ColorScheme-Text { color:#808080; }
  </style>
 </defs>
 <path fill="#808080" class="ColorScheme-Text" d="M 4 3 L 4 4 L 3 4 L 3 5 L 4 5 L 4 19 L 3 19 L 3 20 L 4 20 L 4 21 L 5 21 L 5 20 L 15 20 L 15 19 L 5 19 L 5 5 L 19 5 L 19 15 L 20 15 L 20 5 L 21 5 L 21 4 L 20 4 L 20 3 L 19 3 L 19 4 L 5 4 L 5 3 L 4 3 z M 7 7 L 7 9 L 11 9 L 11 17 L 13 17 L 13 9 L 17 9 L 17 7 L 7 7 z M 18 16 L 18 18 L 16 18 L 16 19 L 18 19 L 18 21 L 19 21 L 19 19 L 21 19 L 21 18 L 19 18 L 19 16 L 18 16 z"/>
</svg>
